X: 29
T:Spootiskerry
R:reel
C:Ian Burns (Shetland)
Z:Set Spootiskery / 
M:4/4
L:1/8
Q:1/4=200
K:G
DE|:G2DE GDEG|DEGA B2AB|G2DE GABd|eged B2AB|
G2DE GDEG|DEGA B2AB|g2ed edBA|B2G2 G2:||
ef|g2ed edB2|BABG E2DE|GABd eged|B2A2 A2ef|
g2ed edB2|BABG E2DE|GABd eged|B2G2 G2ef|
g2ed edB2|BABG E2DE|GABd eged|B2A2 A2DE|
G2DE GDEG|DEGA B2AB|g2ed edBA|B2G2 G2|]
